X:29
T:Cadger's in the Cannongate
M:C|
L:1/8
B:Thompson's Compleat Collection of 200 Favourite Country Dances, vol. 1 (London, 1757)
Z:Transcribed and edited by Fynnian Titford-Mock, 2007
Z:abc's:AK/Fiddler's Companion
K:G
GBGB de/f/ ge|dBgB A/A/A A2|GBGB de/f/ ge|dBgB G/G/G G2:|
|:bagf gedc|GBgB A/A/A A2|b/a/f a/g/e g/f/d e/d/B|GBgB G/G/G G2:|

